frontend/public/svg/objects/paint-bucket.svg

<svg width="133" height="159" viewBox="0 0 133 159" fill="none" xmlns="http://www.w3.org/2000/svg">
<g clip-path="url(#clip0)">
<path d="M0.90979 85.8164C0.90979 69.6528 0.915276 53.4891 0.926215 37.3256C0.933434 33.9599 1.03778 30.5871 1.29244 27.2319C1.6088 23.0622 4.01948 19.9583 6.95528 17.2516C10.6511 13.8439 15.1516 11.7857 19.788 10.0424C28.239 6.86577 37.0852 5.2268 45.968 4.02964C56.1892 2.65133 66.4655 1.50467 76.7549 0.879186C82.4198 0.536578 88.1995 1.18438 93.8598 1.9116C100.409 2.75237 106.933 3.95094 113.373 5.41523C117.796 6.36599 121.866 8.53555 125.121 11.6786C128.206 14.6925 129.696 18.2623 129.234 22.5921C128.945 25.4979 129.221 28.4322 130.048 31.2329C131.671 37.0159 131.666 42.9775 131.574 48.9436C131.486 54.6537 131.443 60.3737 131.674 66.0773C132.675 90.4272 133.318 114.777 132.163 139.139C131.835 146.056 130.571 148.333 123.88 150.341C118.071 152.03 112.155 153.324 106.171 154.214C87.5025 157.147 68.7135 158.65 49.8056 157.674C38.6045 157.097 27.3746 156.689 16.3265 154.443C12.4922 153.588 8.80731 152.164 5.39391 150.22C4.49577 149.756 3.72937 149.072 3.16587 148.233C2.60237 147.394 2.26004 146.426 2.17063 145.419C2.07585 144.414 2.04715 143.403 2.08466 142.393C1.90964 123.534 1.73458 104.674 1.55956 85.8124L0.90979 85.8164ZM123.284 80.0918C122.98 80.0918 122.811 80.0465 122.771 80.099C122.3 80.7166 121.837 81.3415 121.392 81.9794C116.225 89.4223 110.006 95.5512 101.068 98.3026C100.631 98.3826 100.226 98.5835 99.8981 98.8815C98.2041 101.101 95.8544 100.966 93.4601 100.819C92.0036 100.717 90.5433 100.692 89.0843 100.741C79.4722 101.15 69.91 101.806 60.3051 99.8784C52.2571 98.2638 44.1953 96.9216 36.7865 93.189C25.5691 87.5367 17.0556 78.9052 9.98097 68.707C9.56328 68.1635 9.11657 67.6424 8.64276 67.1469C9.3201 93.1917 9.99351 119.082 10.6807 145.478C12.8013 146.076 15.2146 147.118 17.7133 147.395C25.6208 148.277 33.554 148.949 41.4885 149.565C66.0604 151.473 90.3497 148.974 114.501 144.645C117.533 144.102 120.653 143.539 123.282 141.709L123.284 80.0918ZM122.311 54.6779C118.358 55.8974 115.038 54.342 111.959 52.1577C108.656 49.8152 106.652 49.737 103.355 53.6258C101.921 55.3172 100.951 57.3977 99.7314 59.2761C96.363 64.4612 91.835 65.5527 86.4556 62.5001C83.4489 60.7936 81.3414 58.2342 79.3901 55.4349C76.5541 51.3695 74.5332 51.4874 71.9834 55.7858C71.2115 57.1469 70.5985 58.5922 70.1568 60.0933C69.5884 61.9042 69.3495 63.8196 68.7653 65.6238C67.9082 68.2758 67.2676 71.1131 65.838 73.4438C61.1661 81.0619 53.8763 80.6379 48.3204 76.1997C45.3368 73.7575 43.3039 70.3472 42.5754 66.5608C42.0424 64.1547 41.7674 61.6864 41.136 59.3098C40.677 57.3579 39.9522 55.4782 38.982 53.7235C37.7297 51.6232 35.9694 51.2297 33.7542 52.3035C32.2397 53.0252 30.8272 53.944 29.5537 55.0362C24.8451 59.1606 19.5314 59.6011 13.7944 57.9157C12.8755 57.6466 11.9566 57.4018 10.8513 57.094C10.8582 57.5127 10.922 57.9283 11.041 58.3297C22.3871 78.5835 38.9636 91.0225 62.6613 92.7322C63.5605 92.7979 64.5181 92.3115 65.418 91.9997C66.9624 91.4655 68.4542 90.4757 70.019 90.3589C77.4014 89.8148 84.7984 89.4637 92.194 89.127C95.2381 88.9885 98.2979 89.0443 99.9946 92.1697C114.322 86.0993 122.44 64.4101 122.311 54.6779ZM7.9227 25.4138C9.3883 26.4285 10.6354 27.5798 12.1043 28.2361C14.0267 29.1578 16.0707 29.8004 18.1747 30.1447C26.0626 31.1784 33.9656 32.1452 41.8876 32.86C58.2154 34.3839 74.6501 34.3716 90.9758 32.8233C99.18 32.0219 107.169 30.3153 114.473 26.2847C116.352 25.2892 118.109 24.0801 119.712 22.6814C122.132 20.486 122.035 19.0171 119.515 16.8532C118.339 15.8094 117.011 14.9513 115.577 14.3086C112.899 13.1797 110.18 11.9458 107.354 11.4168C98.0997 9.68802 88.8125 8.07402 79.4873 6.79023C74.9645 6.16737 70.2487 5.76245 65.7579 6.3374C55.3222 7.67241 44.9296 9.48324 34.5864 11.4496C27.6092 12.6691 20.9018 15.1094 14.7723 18.6588C12.1686 20.2182 9.6889 21.9438 7.9227 25.4138ZM7.0104 32.6113C7.27293 37.9932 7.4521 42.7938 7.7829 47.5863C7.94245 48.4722 8.34905 49.2947 8.95584 49.9595C12.8039 54.779 20.7003 55.6291 25.5973 51.8525C27.2325 50.4911 28.9798 49.2701 30.8204 48.2026C35.657 45.639 40.5467 46.767 43.3827 51.4513C44.9081 53.971 45.6537 56.9955 46.543 59.8571C47.3372 62.4168 47.6936 65.1077 48.5219 67.6555C48.901 68.9544 49.5542 70.1575 50.4372 71.1827C51.3203 72.2079 52.4128 73.0322 53.6412 73.5993C56.5724 74.9428 58.9215 74.6127 60.7632 72.0116C61.9196 70.2402 62.7952 68.3 63.359 66.2608C64.2227 63.4859 64.6717 60.5835 65.4705 57.7856C66.3181 54.4935 68.2344 51.576 70.9181 49.4897C74.2727 46.9523 77.6325 47.1314 80.5912 50.1092C81.8422 51.3687 82.6685 53.0482 83.9077 54.3228C85.5282 56.145 87.3594 57.7681 89.3632 59.1575C91.875 60.7275 93.7416 60.0874 95.3956 57.659C96.1497 56.5517 96.6564 55.2708 97.444 54.1917C98.7403 52.2355 100.21 50.3991 101.834 48.7051C105.077 45.6269 109.149 45.3889 112.957 47.7097C114.105 48.4094 115.2 49.2126 116.403 49.7967C119.328 51.2164 122.427 49.6814 122.507 46.5067C122.638 41.3695 122.363 36.2217 122.25 30.6297C120.257 31.6431 118.687 32.4359 117.122 33.2379C106.454 38.702 94.8718 39.9674 83.1634 40.4695C67.9042 41.1349 52.6173 40.6858 37.4238 39.1254C27.3024 38.0805 17.0294 37.6211 7.0104 32.6113Z" fill="black"/>
</g>
<defs>
<clipPath id="clip0">
<rect width="131.924" height="157.521" fill="white" transform="translate(0.879761 0.610352)"/>
</clipPath>
</defs>
</svg>

<svg xmlns="http://www.w3.org/2000/svg" width="133" height="159" fill="none" viewBox="0 0 133 159"><g clip-path="url(#a)"><path fill="#000" d="M.91 85.816q0-24.245.016-48.49c.007-3.366.112-6.739.366-10.094.317-4.17 2.727-7.274 5.663-9.98 3.696-3.408 8.197-5.466 12.833-7.21 8.451-3.176 17.297-4.815 26.18-6.012C56.189 2.65 66.466 1.505 76.755.88 82.42.536 88.2 1.183 93.86 1.911c6.549.84 13.073 2.039 19.513 3.503a24.25 24.25 0 0 1 11.748 6.264c3.085 3.014 4.575 6.583 4.113 10.913a22.6 22.6 0 0 0 .814 8.64c1.623 5.784 1.618 11.746 1.526 17.712-.088 5.71-.131 11.43.1 17.133 1.001 24.35 1.644 48.7.489 73.062-.328 6.917-1.592 9.194-8.283 11.202a134 134 0 0 1-17.709 3.873c-18.669 2.933-37.458 4.436-56.365 3.46-11.201-.577-22.431-.985-33.48-3.231a39.4 39.4 0 0 1-10.932-4.223 6 6 0 0 1-3.223-4.801 23 23 0 0 1-.086-3.026l-.525-56.58zm122.374-5.724c-.304 0-.473-.046-.513.007a55 55 0 0 0-1.379 1.88c-5.167 7.443-11.386 13.572-20.324 16.324-.437.08-.842.28-1.17.579-1.694 2.219-4.044 2.084-6.438 1.937a42 42 0 0 0-4.376-.078c-9.612.409-19.174 1.065-28.779-.863-8.048-1.614-16.11-2.956-23.519-6.689-11.217-5.652-19.73-14.284-26.805-24.482a19 19 0 0 0-1.338-1.56c.677 26.045 1.35 51.935 2.038 78.331 2.12.598 4.534 1.64 7.032 1.917 7.908.882 15.841 1.554 23.776 2.17 24.571 1.908 48.86-.591 73.012-4.92 3.032-.543 6.152-1.106 8.781-2.936zm-.973-25.414c-3.953 1.22-7.273-.336-10.352-2.52-3.303-2.343-5.307-2.421-8.604 1.468-1.434 1.691-2.404 3.772-3.624 5.65-3.368 5.185-7.896 6.277-13.275 3.224-3.007-1.706-5.115-4.266-7.066-7.065-2.836-4.065-4.857-3.948-7.407.35a20.4 20.4 0 0 0-1.826 4.308c-.569 1.811-.807 3.727-1.392 5.53-.857 2.653-1.497 5.49-2.927 7.82-4.672 7.619-11.962 7.195-17.518 2.757a16.48 16.48 0 0 1-5.745-9.64c-.533-2.405-.808-4.874-1.439-7.25a22 22 0 0 0-2.154-5.587c-1.252-2.1-3.013-2.493-5.228-1.42a19 19 0 0 0-4.2 2.733c-4.709 4.125-10.023 4.565-15.76 2.88-.918-.27-1.837-.514-2.943-.822.007.419.071.834.19 1.236 11.346 20.254 27.923 32.692 51.62 34.402.9.066 1.857-.42 2.757-.732 1.544-.534 3.036-1.524 4.601-1.641 7.382-.544 14.78-.895 22.175-1.232 3.044-.138 6.104-.083 7.8 3.043 14.328-6.07 22.446-27.76 22.317-37.492M7.923 25.414c1.465 1.014 2.712 2.166 4.181 2.822a22.4 22.4 0 0 0 6.07 1.909c7.889 1.033 15.792 2 23.714 2.715a262 262 0 0 0 49.088-.037c8.204-.801 16.193-2.508 23.497-6.538a27.7 27.7 0 0 0 5.239-3.604c2.42-2.195 2.323-3.664-.197-5.828a15.5 15.5 0 0 0-3.938-2.544c-2.678-1.13-5.397-2.363-8.223-2.892C98.1 9.688 88.813 8.074 79.487 6.79c-4.522-.623-9.238-1.028-13.73-.453-10.435 1.335-20.827 3.146-31.17 5.113a60.2 60.2 0 0 0-19.815 7.209c-2.603 1.56-5.083 3.285-6.85 6.755M7.01 32.61c.263 5.382.442 10.183.773 14.975a4.8 4.8 0 0 0 1.173 2.374c3.848 4.819 11.744 5.67 16.641 1.892a38 38 0 0 1 5.223-3.65c4.837-2.563 9.727-1.435 12.563 3.25 1.525 2.519 2.27 5.544 3.16 8.405.794 2.56 1.15 5.25 1.979 7.799a9.47 9.47 0 0 0 5.12 5.943c2.93 1.344 5.28 1.014 7.121-1.587a20.5 20.5 0 0 0 2.596-5.751c.864-2.775 1.313-5.677 2.111-8.475a15.36 15.36 0 0 1 5.448-8.296c3.355-2.538 6.714-2.359 9.673.62 1.251 1.259 2.078 2.938 3.317 4.213a30.8 30.8 0 0 0 5.455 4.834c2.512 1.57 4.379.93 6.033-1.498.754-1.107 1.26-2.388 2.048-3.467a39.3 39.3 0 0 1 4.39-5.487c3.243-3.078 7.315-3.316 11.123-.995 1.148.7 2.243 1.503 3.446 2.087 2.925 1.42 6.024-.116 6.104-3.29.131-5.137-.144-10.285-.257-15.877-1.993 1.013-3.563 1.806-5.128 2.608-10.668 5.464-22.25 6.73-33.959 7.231a314 314 0 0 1-45.74-1.344C27.303 38.08 17.029 37.62 7.01 32.61"/></g><defs><clipPath id="a"><path fill="#fff" d="M.88.61h131.924v157.521H.88z"/></clipPath></defs></svg>
